X: 1
T: Hubert Cumberdale's
M: 4/4
L: 1/8
R: barndance
K:Gmaj
|:G2 AG Bd d2|e2 gd edBA|G2 AG Bdeg|a2 ab afed|
G2 AG Bd d2|e2 gd egab|c'2 ba gedc|1 BdAB GDEF:|2 BdAB GABc||
|:&quot;G&quot;d2 de &quot;G/F#&quot;d2 de|&quot;G/e&quot;dBde &quot;G/d&quot;dBAG|&quot;c&quot;e2 ef &quot;c/B#&quot;e2 ef|&quot;c/A&quot;edef &quot;c/G&quot;edBc|
&quot;G&quot;d2 de &quot;G/F#&quot;d2 de|&quot;G/e&quot;dBde &quot;G/d&quot;dBAG|&quot;c&quot;cdef gedc|1 BdAB GABc:|2 BdAB G4||
